polaris-icons/icons/new-icons/IconsMajor.svg

<svg width="20" height="20" viewBox="0 0 20 20" fill="none" xmlns="http://www.w3.org/2000/svg">
<path fill-rule="evenodd" clip-rule="evenodd" d="M8.11089 15H5.75C4.7835 15 4 14.2165 4 13.25V8.94949C3.38141 8.31822 3 7.45365 3 6.5C3 4.567 4.567 3 6.5 3C7.8962 3 9.10145 3.81753 9.66318 5H14.25C15.2165 5 16 5.7835 16 6.75V13.25C16 13.8583 15.6896 14.3941 15.2186 14.7077L15.8978 15.8721C16.0331 16.1041 16.0341 16.3907 15.9004 16.6235C15.7666 16.8564 15.5185 17 15.25 17H8.25C7.98145 17 7.7334 16.8564 7.59964 16.6235C7.46589 16.3907 7.46685 16.1041 7.60217 15.8721L8.11089 15ZM6.5 8.5C7.60457 8.5 8.5 7.60457 8.5 6.5C8.5 5.39543 7.60457 4.5 6.5 4.5C5.39543 4.5 4.5 5.39543 4.5 6.5C4.5 7.60457 5.39543 8.5 6.5 8.5ZM6.5 10C8.433 10 10 8.433 10 6.5H14.25C14.3881 6.5 14.5 6.61193 14.5 6.75V13.25C14.5 13.3043 14.4827 13.3546 14.4532 13.3956L12.3978 9.8721C12.2634 9.64168 12.0168 9.5 11.75 9.5C11.4832 9.5 11.2366 9.64168 11.1022 9.8721L8.98589 13.5H5.75C5.61193 13.5 5.5 13.3881 5.5 13.25V9.85506C5.81685 9.94936 6.15251 10 6.5 10ZM11.75 11.7385L13.9442 15.5H9.55578L11.75 11.7385Z" fill="#4A4A4A"/>
</svg>

<svg viewBox="0 0 20 20" xmlns="http://www.w3.org/2000/svg"><path fill-rule="evenodd" d="M8.11 15h-2.36a1.75 1.75 0 0 1-1.75-1.75v-4.3a3.5 3.5 0 1 1 5.663-3.95h4.587c.966 0 1.75.784 1.75 1.75v6.5c0 .608-.31 1.144-.781 1.458l.679 1.164a.75.75 0 0 1-.648 1.128h-7a.75.75 0 0 1-.648-1.128l.509-.872Zm-1.61-6.5a2 2 0 1 0 0-4 2 2 0 0 0 0 4Zm0 1.5a3.5 3.5 0 0 0 3.5-3.5h4.25a.25.25 0 0 1 .25.25v6.5a.248.248 0 0 1-.047.146l-2.055-3.524a.75.75 0 0 0-1.296 0l-2.116 3.628h-3.236a.25.25 0 0 1-.25-.25v-3.395a3.5 3.5 0 0 0 1 .145Zm5.25 1.739 2.194 3.761h-4.388l2.194-3.761Z" fill="#5C5F62"/></svg>
